/* XPM */
static char *apple_bush[] = {
/* columns rows colors chars-per-pixel */
"16 16 17 1 ",
"  c black",
". c #5F7A79",
"X c #6D8A7E",
"o c #718F80",
"O c #6D8C7D",
"+ c #504086",
"@ c None",
"# c #5F7A79",
"$ c #97BB8E",
"% c #AED499",
"& c #C2E09A",
"* c #A35B70",
"= c #8A4A70",
"- c #D99A9A",
"; c #BD757E",
": c #6E967C",
"> c white",
/* pixels */
"  ..X######     ",
" .o##$%&&%$##   ",
".o#$%%%&&%%%$#  ",
".#$%&&%%&&&%%$# ",
"X#%%&&%%&***=$# ",
"#$%%%%%%%*-;=%$#",
"#$$***=%%=;;=$$#",
"#$$*-;=$%$==$$# ",
"O#$=;;=$$$$$$$$#",
"#:$$==$$$$$$$$:#",
"#::$:$:***=::::#",
"#:::::$*-;=$$::#",
"@#:$$::=;;=:::#@",
"@@::::::==::::@@",
"+@@@::::::::@@  ",
"++@@@@@@@@@@    "
};
