/* XPM */
static char *cat1[] = {
/* columns rows colors chars-per-pixel */
"16 16 8 1 ",
"  c None",
". c #120E14",
"X c #AB572C",
"o c #8F3622",
"O c #C2B1A9",
"+ c #CA719F",
"@ c #CC7F3F",
"# c white",
/* pixels */
"            ..  ",
" .      .  .Xo. ",
".X.    .X.  .Xo.",
".O.....oO.  .XX.",
".OXoXoXXO. .XXo.",
".oXXXXXXo. .Xo. ",
".X.XXX.XX..oXo. ",
".X.XXX.XX.ooX.  ",
".oXX+XXXo..X.   ",
"..XXXXXo..XX.   ",
".oXXXXXXoo.X.   ",
".oXXXXXXo...    ",
".X@oXo@XX..     ",
" .@@.@@X.       ",
"  .. ...        ",
"                "
};
