/* XPM */
static char *cat2[] = {
/* columns rows colors chars-per-pixel */
"16 16 7 1 ",
"  c None",
". c #120E14",
"X c #E1DEE7",
"o c #BDB5C8",
"O c #9A877E",
"+ c #CA719F",
"@ c white",
/* pixels */
"            ..  ",
" .      .  .Xo. ",
".X.    .X.  .Xo.",
".O.....oO.  .XX.",
".OXoXoXXO. .XXo.",
".oXXXXXXo. .Xo. ",
".X.XXX.XX..oXo. ",
".X.XXX.XX.ooX.  ",
".oXX+XXXo..X.   ",
"..XXXXXo..XX.   ",
".oXXXXXXoo.X.   ",
".oXXXXXXo...    ",
".XXoXoXXX..     ",
" .XX.XXX.       ",
"  .. ...        ",
"                "
};
